X: 1
T: Hora Agadati
R:
O: Israel
B:
D:
Z: 1998 by John Chambers <jc:trillian.mit.edu>
N:
M: 2/4
L: 1/8
P: C instruments
K: Em
P: Em
|: "Em"{F}DE ED | ED G{B}G | DE ED | ED {B}G2 | DE ED | EF G"(*)"A | "D"FG {A}F{E}D | "Em"{B}EF E2 :|
|: "Am"zA2 A | {e}AG A2 | A>B cB | A2 "G"G2 | "D"Ad cB | "Am"{e}AG A2 |1 "G"Bc B/A/G | "Am"A3z :|
|| "Coda"Bc B{A}G | z2 "A"A"G"[BG] | "A"Az3 |] x4  x4  x4  x4  x4  x4 |
%%sep 5 5 200
P: Am
K: Am
|: "Am"{B}GA AG | AG c{e}c | GA AG | AG {e}c2 | GA AG | AB cd | "G"Bc {d}B{A}G | "Am"{e}AB A2 :|
|: "Dm"zd2 d | {a}dc d2 | d>e fe | d2 "C"c2 | "G"dg fe | "Dm"{a}dc d2 |1 "C"ef e/d/c | "Dm"d3z :|
|| "Coda"ef e{d}c | z2 "D"d"C"[ec] | "D"dz3 |] x4  x4  x4  x4  x4  x4 |

%%sep 1 1 500

